packages/core/assets/Icons/forward.svg

<svg viewBox="0 0 20 20" fill="none" xmlns="http://www.w3.org/2000/svg">
<path d="M15.9792 9.16665L12.7501 5.93748C12.5834 5.77081 12.5001 5.5729 12.5001 5.34373C12.5001 5.11456 12.5834 4.91665 12.7501 4.74998C12.9167 4.5972 13.1147 4.52081 13.3438 4.52081C13.573 4.52081 13.764 4.5972 13.9167 4.74998L17.7501 8.58331C17.8334 8.66665 17.8924 8.75692 17.9272 8.85415C17.9619 8.95137 17.9792 9.05554 17.9792 9.16665C17.9792 9.27776 17.9619 9.38192 17.9272 9.47915C17.8924 9.57637 17.8334 9.66665 17.7501 9.74998L13.9167 13.5833C13.7501 13.75 13.5556 13.8298 13.3334 13.8229C13.1112 13.816 12.9167 13.7361 12.7501 13.5833C12.5834 13.4166 12.4966 13.2222 12.4897 13C12.4827 12.7778 12.5626 12.5833 12.7292 12.4166L15.9792 9.16665ZM10.9792 9.99998H5.83342C5.13897 9.99998 4.54869 10.243 4.06258 10.7291C3.57647 11.2153 3.33341 11.8055 3.33341 12.5V15C3.33341 15.2361 3.25355 15.434 3.09383 15.5937C2.93411 15.7535 2.73619 15.8333 2.50008 15.8333C2.26397 15.8333 2.06605 15.7535 1.90633 15.5937C1.74661 15.434 1.66675 15.2361 1.66675 15V12.5C1.66675 11.3472 2.073 10.3646 2.8855 9.55206C3.698 8.73956 4.68064 8.33331 5.83342 8.33331H10.9792L8.58342 5.93748C8.41675 5.77081 8.33342 5.5729 8.33342 5.34373C8.33342 5.11456 8.41675 4.91665 8.58342 4.74998C8.75008 4.5972 8.948 4.52081 9.17717 4.52081C9.40633 4.52081 9.5973 4.5972 9.75008 4.74998L13.5834 8.58331C13.6667 8.66665 13.7258 8.75692 13.7605 8.85415C13.7952 8.95137 13.8126 9.05554 13.8126 9.16665C13.8126 9.27776 13.7952 9.38192 13.7605 9.47915C13.7258 9.57637 13.6667 9.66665 13.5834 9.74998L9.75008 13.5833C9.58342 13.75 9.38897 13.8298 9.16675 13.8229C8.94453 13.816 8.75008 13.7361 8.58342 13.5833C8.41675 13.4166 8.32994 13.2222 8.323 13C8.31605 12.7778 8.39592 12.5833 8.56258 12.4166L10.9792 9.99998Z" fill="currentColor"/>
</svg>

<svg xmlns="http://www.w3.org/2000/svg" width="20" height="20" fill="none" viewBox="0 0 20 20">
  <path fill="#201F1F" d="m15.98 9.167-3.23-3.23a.811.811 0 0 1-.25-.593.81.81 0 0 1 .25-.594.849.849 0 0 1 .594-.23c.229 0 .42.077.573.23l3.833 3.833a.732.732 0 0 1 .177.271.923.923 0 0 1 .052.313.923.923 0 0 1-.052.312.732.732 0 0 1-.177.271l-3.833 3.833a.763.763 0 0 1-.584.24.878.878 0 0 1-.583-.24.838.838 0 0 1-.26-.583.764.764 0 0 1 .24-.583l3.25-3.25Zm-5 .833H5.832a2.41 2.41 0 0 0-1.77.73 2.411 2.411 0 0 0-.73 1.77V15c0 .236-.08.434-.24.594a.806.806 0 0 1-.593.24.806.806 0 0 1-.594-.24.806.806 0 0 1-.24-.594v-2.5c0-1.153.407-2.135 1.22-2.948.812-.812 1.795-1.219 2.947-1.219h5.146L8.583 5.937a.811.811 0 0 1-.25-.593c0-.23.084-.427.25-.594a.849.849 0 0 1 .594-.23c.23 0 .42.077.573.23l3.833 3.833a.731.731 0 0 1 .178.271.923.923 0 0 1 .052.313.923.923 0 0 1-.053.312.731.731 0 0 1-.177.271L9.75 13.583a.763.763 0 0 1-.583.24.879.879 0 0 1-.584-.24.839.839 0 0 1-.26-.583.764.764 0 0 1 .24-.583L10.979 10Z"/>
</svg>
